src/assets/images/mountains.svg

<svg viewBox="0 0 1053 600" xmlns="http://www.w3.org/2000/svg"><g fill="none" fill-rule="nonzero"><path d="m477.777398 226 221.980055 368.206777c1.14058 1.891923.531496 4.350252-1.360427 5.490832-.623325.375782-1.337367.57437-2.065203.57437h-458.520212c-2.209139 0-4-1.790861-4-4 0-.784369.23061-1.551429.663142-2.205761z" fill="#f8f9fa"/><path d="m478.073457 242 36.624774 62.067042-96.117631 26.993198z" fill="#fff"/><path d="m436.650643 356-39.456013 129.990464c-.22752.749577-.670125 1.415851-1.272896 1.916149l-83.412948 69.232446c-1.699894 1.410905-4.221695 1.176634-5.632601-.52326-1.127719-1.358703-1.231141-3.296105-.254481-4.767144z" fill="#eeefef" opacity=".375256"/><path d="m701.339744 570.656716 52.320512-91.313432" stroke="#f4f6f7" stroke-linecap="round" stroke-width="15"/><path d="m745.339744 541.656716 52.320512-91.313432" stroke="#f4f6f7" stroke-linecap="round" stroke-width="15"/><circle cx="889" cy="121" fill="#fff" r="51" stroke="#f4f6f7" stroke-width="10"/><path d="m708.152667 110.116093 291.678778 483.818705c1.140575 1.891923.531495 4.350252-1.360428 5.490832-.623324.375782-1.337366.57437-2.065202.57437h-604.641835c-2.209139 0-4-1.790861-4-4 0-.784369.230609-1.551429.663142-2.205761z" fill="#f4f6f7"/><path d="m708.536335 130.116093 47.9381 81.239438c-20.21113 0-38.663702 5.366493-55.357717 16.09948-16.694014 10.732987-40.177506 17.14361-70.450474 19.231867z" fill="#fff"/><path d="m654.479572 280-51.751648 170.499252c-.227519.749577-.670124 1.415851-1.272895 1.916149l-115.931887 96.223048c-1.699894 1.410905-4.221696 1.176634-5.632602-.52326-1.127718-1.358703-1.231141-3.296105-.254481-4.767144z" fill="#eeefef"/><g fill="#d8d8d8"><path d="m728 246 29.500082 7.494963c.774332.196732 1.357296.835421 1.482717 1.624447l4.989213 31.387418-12.811633-26.983941z"/><path d="m764 110 13.248585 3.435624c.772096.20022 1.351404.84007 1.474144 1.628204l2.249283 14.443-6.044677-12.994627z" transform="matrix(-1 0 0 1 1544.972012 0)"/><path d="m764 110 13.248585 3.435624c.772096.20022 1.351404.84007 1.474144 1.628204l2.249283 14.443-6.044677-12.994627z" transform="matrix(-1 0 0 1 1544.972012 0)"/><path d="m795.765879 171.570466 18.448524 6.071258c.735766.242135 1.265562.887345 1.359909 1.656163l3.163579 25.779407-8.18161-22.320836z" transform="matrix(-.5 .8660254 .8660254 .5 1047.784563 -604.9387)"/></g></g></svg>

<?xml version="1.0" encoding="UTF-8"?>
<svg viewBox="0 0 1053 600" version="1.1" xmlns="http://www.w3.org/2000/svg" xmlns:xlink="http://www.w3.org/1999/xlink">
    <g id="mountains" stroke="none" stroke-width="1" fill="none" fill-rule="evenodd">
        <path d="M477.777398,226 L699.757453,594.206777 C700.898033,596.0987 700.288949,598.557029 698.397026,599.697609 C697.773701,600.073391 697.059659,600.271979 696.331823,600.271979 L237.811611,600.271979 C235.602472,600.271979 233.811611,598.481118 233.811611,596.271979 C233.811611,595.48761 234.042221,594.72055 234.474753,594.066218 L477.777398,226 Z" id="Rectangle" fill="#F8F9FA" fill-rule="nonzero"></path>
        <polygon id="Rectangle" fill="#FFFFFF" fill-rule="nonzero" points="478.073457 242 514.698231 304.067042 418.5806 331.06024"></polygon>
        <path d="M436.650643,356 L397.19463,485.990464 C396.96711,486.740041 396.524505,487.406315 395.921734,487.906613 L312.508786,557.139059 C310.808892,558.549964 308.287091,558.315693 306.876185,556.615799 C305.748466,555.257096 305.645044,553.319694 306.621704,551.848655 L436.650643,356 Z" id="Rectangle" fill="#EEEFEF" fill-rule="nonzero" opacity="0.375255766"></path>
        <path d="M701.339744,570.656716 L753.660256,479.343284" id="Line" stroke="#F4F6F7" stroke-width="15" stroke-linecap="round" fill-rule="nonzero"></path>
        <path d="M745.339744,541.656716 L797.660256,450.343284" id="Line" stroke="#F4F6F7" stroke-width="15" stroke-linecap="round" fill-rule="nonzero"></path>
        <circle id="Oval" stroke="#F4F6F7" stroke-width="10" fill="#FFFFFF" fill-rule="nonzero" cx="889" cy="121" r="51"></circle>
        <path d="M708.152667,110.116093 L999.831445,593.934798 C1000.97202,595.826721 1000.36294,598.28505 998.471017,599.42563 C997.847693,599.801412 997.133651,600 996.405815,600 L391.76398,600 C389.554841,600 387.76398,598.209139 387.76398,596 C387.76398,595.215631 387.994589,594.448571 388.427122,593.794239 L708.152667,110.116093 Z" id="Rectangle" fill="#F4F6F7" fill-rule="nonzero"></path>
        <path d="M708.536335,130.116093 L756.474435,211.355531 C736.263305,211.355531 717.810733,216.722024 701.116718,227.455011 C684.422704,238.187998 660.939212,244.598621 630.666244,246.686878 L708.536335,130.116093 Z" id="Rectangle" fill="#FFFFFF" fill-rule="nonzero"></path>
        <path d="M654.479572,280 L602.727924,450.499252 C602.500405,451.248829 602.0578,451.915103 601.455029,452.415401 L485.523142,548.638449 C483.823248,550.049354 481.301446,549.815083 479.89054,548.115189 C478.762822,546.756486 478.659399,544.819084 479.636059,543.348045 L654.479572,280 Z" id="Rectangle" fill="#EEEFEF" fill-rule="nonzero"></path>
        <path d="M728,246 L757.500082,253.494963 C758.274414,253.691695 758.857378,254.330384 758.982799,255.11941 L763.972012,286.506828 L751.160379,259.522887 L728,246 Z" id="Rectangle" fill="#D8D8D8" fill-rule="nonzero"></path>
        <path d="M764,110 L777.248585,113.435624 C778.020681,113.635844 778.599989,114.275694 778.722729,115.063828 L780.972012,129.506828 L774.927335,116.512201 L764,110 Z" id="Rectangle" fill="#D8D8D8" fill-rule="nonzero" transform="translate(772.486006, 119.753414) scale(-1, 1) translate(-772.486006, -119.753414) "></path>
        <path d="M764,110 L777.248585,113.435624 C778.020681,113.635844 778.599989,114.275694 778.722729,115.063828 L780.972012,129.506828 L774.927335,116.512201 L764,110 Z" id="Rectangle" fill="#D8D8D8" fill-rule="nonzero" transform="translate(772.486006, 119.753414) scale(-1, 1) translate(-772.486006, -119.753414) "></path>
        <path d="M795.765879,171.570466 L814.214403,177.641724 C814.950169,177.883859 815.479965,178.529069 815.574312,179.297887 L818.737891,205.077294 L810.556281,182.756458 L795.765879,171.570466 Z" id="Rectangle" fill="#D8D8D8" fill-rule="nonzero" transform="translate(807.251885, 188.323880) scale(-1, 1) rotate(60.000000) translate(-807.251885, -188.323880) "></path>
    </g>
</svg>
